X:1010
T:Caucus Reel, The
T:Caucus at Secaucus, The
R:reel
C:Jean Duval, Canada
Z:id:hn-reel-1010
M:C|
L:1/8
K:G
d2Bd ~g3d | egdB ~A3B | d2Bd gabg |1 abge ~g3e :|2 abge g3a ||
|: bg~g2 agef | gage dega | bg~g2 agbg | abge ~g3a |
bg~g2 agef | ~g3e dBGA | B2BG AGEG |1 GEDE G3a :|2 GEDE G3d ||
|: edgd edBd | egdB ~A3d | edgd edBd | gabg abgd |
edgd edBd | egdB A2GA | B2BG AGEG |1 GEDE G3d :|2 GEDE G3e ||

